X:107
T:Maryann's Fancy
M:C
L:1/8
B:Thompson's Compleat Collection of 200 Favourite Country Dances, vol. 3 (London, 1773)
Z:Transcribed and edited by Flynn Titford-Mock, 2007
Z:abc's:AK/Fiddler's Companion
K:D
d2 fd gecA | dfed cBAG | FAdc Bc d2 | efgf ecBA | d2 fd gecA |
dfed cBAG | FAdc Bbag | fedc {c}d4::d2 fd cecA | BdBA {A}^G2 FE |
F^GAB cdec | dBA^G A2 [A,2A2] | d2 fd gedc | dfed cBAG | FAdc Bbag | fedc {c}d4 :|

